img/logos-horizon/icon-hrz.svg

<svg width="103" height="85" viewBox="0 0 103 85" fill="none" xmlns="http://www.w3.org/2000/svg">
<path d="M15.4714 49.2175C16.2912 46.8373 17.402 44.7744 18.8037 42.976C20.2054 41.1777 21.8451 39.776 23.6963 38.771C25.5741 37.766 27.5576 37.2635 29.6469 37.2635C32.1329 37.2635 34.4602 37.9776 36.6024 39.4322C38.7446 40.8603 40.5429 42.7909 42.024 45.1976V30.2551C40.1462 29.4088 38.1892 28.7212 36.1263 28.2187C34.0635 27.7162 31.8948 27.4518 29.6469 27.4518C26.8435 27.4518 24.1459 27.8485 21.5277 28.6154C18.9095 29.3824 16.4764 30.4932 14.2284 31.8948L14.1226 0H11.4515C9.20349 0.158681 7.14064 0.555383 5.26291 1.16366C3.38519 1.79838 1.6397 2.53889 0 3.38519V49.2175H15.4714Z" fill="white"/>
<path d="M59.2937 0H56.4904C54.3217 0.158681 52.2853 0.555383 50.4076 1.16366C48.5299 1.79838 46.7844 2.53889 45.1447 3.38519V49.2175H59.2673V0H59.2937Z" fill="white"/>
<path d="M14.1226 84.9736L14.2548 56.8607C14.2548 55.6706 14.3342 54.5334 14.4928 53.4226H0V85.0001" fill="white"/>
<path d="M59.2937 84.9735V53.396H45.1711V84.9735" fill="white"/>
<path d="M102.323 41.4421H64.9798V48.7679H102.323V41.4421Z" fill="white"/>
<path d="M64.9798 77.1454V84.762H102.296V77.4098H77.8594L100.789 52.9465H87.7769L64.9798 77.1454Z" fill="white"/>
</svg>

<?xml version="1.0" encoding="utf-8"?>
<!-- Generator: Adobe Illustrator 24.0.1, SVG Export Plug-In . SVG Version: 6.00 Build 0)  -->
<svg version="1.1" id="Camada_1" xmlns="http://www.w3.org/2000/svg" xmlns:xlink="http://www.w3.org/1999/xlink" x="0px" y="0px"
	 viewBox="0 0 103 85" style="enable-background:new 0 0 103 85;" xml:space="preserve">
<style type="text/css">
	.st0{fill:#FF8500;}
</style>
<g>
	<path class="st0" d="M15.5,49.2c0.8-2.4,1.9-4.4,3.3-6.2c1.4-1.8,3-3.2,4.9-4.2c1.9-1,3.9-1.5,6-1.5c2.5,0,4.8,0.7,7,2.2
		c2.1,1.4,3.9,3.4,5.4,5.8V30.3c-1.9-0.8-3.8-1.5-5.9-2c-2.1-0.5-4.2-0.8-6.5-0.8c-2.8,0-5.5,0.4-8.1,1.2c-2.6,0.8-5.1,1.9-7.3,3.3
		L14.1,0h-2.7C9.2,0.2,7.1,0.6,5.3,1.2C3.4,1.8,1.6,2.5,0,3.4v45.8H15.5z"/>
	<path class="st0" d="M59.3,0h-2.8c-2.2,0.2-4.2,0.6-6.1,1.2c-1.9,0.6-3.6,1.4-5.3,2.2v45.8h14.1L59.3,0L59.3,0z"/>
	<path class="st0" d="M14.1,85l0.1-28.1c0-1.2,0.1-2.3,0.2-3.4H0V85"/>
	<path class="st0" d="M59.3,85V53.4H45.2V85"/>
	<path class="st0" d="M102.3,41.4H65v7.3h37.3V41.4z"/>
	<path class="st0" d="M65,77.1v7.6h37.3v-7.4H77.9l22.9-24.5h-13L65,77.1z"/>
</g>
</svg>
